X: 1
T: Belfast, The
M: 2/4
L: 1/8
R: polka
K: Gmaj
|:BD BD|B/A/B/c/ dc/B/|cA FD|G/D/E/F/ G/A/B/c/|
BD BD|B/A/B/c/  dc/B/|cAFD|GB G2:|
|: fg/f/  ef/e/|dD D/F/A/d/|^cE E/G/B/^c/|dd d2|
fg/f/ ef/e/|dD D/F/A/d/|^cE E/G/B/^c/|dd d2:|
|:AA/A/ BA|ff/f/ gf|ee/e/ fe|dd e/d/^c/B/|
AA/A/ BA|ff/f/ gf|ee/e/ fe|1df d2:|2d^c =c2|
